docs/layout/assets/images/github.svg

<?xml version="1.0" encoding="UTF-8"?>
<svg width="28px" height="28px" viewBox="0 0 28 28" version="1.1" xmlns="http://www.w3.org/2000/svg" xmlns:xlink="http://www.w3.org/1999/xlink">
    <!-- Generator: Sketch 49 (51002) - http://www.bohemiancoding.com/sketch -->
    <title></title>
    <desc>Created with Sketch.</desc>
    <defs></defs>
    <g id="Page-1" stroke="none" stroke-width="1" fill="none" fill-rule="evenodd">
        <g id="taiko_code-box-and-note-styling" transform="translate(-1067.000000, -18.000000)" fill="#FFFFFF">
            <g id="GITHUB" transform="translate(1067.000000, 18.000000)">
                <path d="M13.7143021,0.857112885 C21.2857397,0.857112885 27.4286041,6.99997735 27.4286041,14.5714149 C27.4286041,20.6249936 23.500028,25.7678569 18.053593,27.5892876 C17.3571635,27.7142878 17.1071633,27.2857158 17.1071633,26.9285725 C17.1071633,26.4821434 17.1250204,24.9999988 17.1250204,23.1607109 C17.1250204,21.8749951 16.6964485,21.0535655 16.1964479,20.6249936 C19.2500229,20.2857075 22.4643125,19.1249918 22.4643125,13.8571284 C22.4643125,12.3571266 21.9285976,11.1428394 21.0535965,10.1785526 C21.1964538,9.82140929 21.6607401,8.42855048 20.9107392,6.53569108 C19.7678807,6.1785478 17.1428776,7.94640705 17.1428776,7.94640705 C16.0535906,7.64283526 14.8750177,7.48212078 13.7143021,7.48212078 C12.5535864,7.48212078 11.3750136,7.64283526 10.2857265,7.94640705 C10.2857265,7.94640705 7.66072342,6.1785478 6.51786491,6.53569108 C5.76786402,8.42855048 6.23215029,9.82140929 6.3750076,10.1785526 C5.50000656,11.1428394 4.96429163,12.3571266 4.96429163,13.8571284 C4.96429163,19.1071346 8.16072401,20.2857075 11.2142991,20.6249936 C10.8214415,20.9821369 10.4642982,21.5892805 10.339298,22.4642815 C9.55358282,22.8214248 7.55358043,23.4285684 6.35715044,21.321423 C5.60714954,20.01785 4.25000507,19.910707 4.25000507,19.910707 C2.91071776,19.8928499 4.16071925,20.7499937 4.16071925,20.7499937 C5.05357745,21.1607085 5.6785782,22.7499961 5.6785782,22.7499961 C6.48215058,25.1964276 10.3035837,24.3749981 10.3035837,24.3749981 C10.3035837,25.5178566 10.3214409,26.5892864 10.3214409,26.9285725 C10.3214409,27.2857158 10.0714406,27.7142878 9.37501118,27.5892876 C3.92857611,25.7678569 0,20.6249936 0,14.5714149 C0,6.99997735 6.14286447,0.857112885 13.7143021,0.857112885 Z M5.19643477,20.5535649 C5.16072044,20.6249936 5.05357745,20.6428508 4.96429163,20.5892793 C4.85714865,20.5357078 4.80357715,20.446422 4.83929148,20.3749933 C4.87500581,20.3214218 4.96429163,20.3035646 5.07143462,20.339279 C5.1785776,20.3928505 5.23214909,20.4821363 5.19643477,20.5535649 Z M5.75000685,21.1607085 C5.6785782,21.2321372 5.55357805,21.1964228 5.46429223,21.107137 C5.37500641,20.999994 5.35714924,20.8749939 5.4285779,20.8214224 C5.50000656,20.7499937 5.62500671,20.7857081 5.71429253,20.8749939 C5.80357835,20.9821369 5.82143551,21.107137 5.75000685,21.1607085 Z M6.28572178,21.9642809 C6.21429312,22.0178524 6.07143581,21.9642809 5.98214999,21.8392808 C5.89286417,21.7142806 5.89286417,21.5714233 5.98214999,21.5178518 C6.07143581,21.4464231 6.21429312,21.4999946 6.28572178,21.6249948 C6.3750076,21.7499949 6.3750076,21.8928522 6.28572178,21.9642809 Z M7.03572267,22.7142818 C6.96429402,22.8035676 6.80357954,22.7857105 6.67857939,22.6607103 C6.55357924,22.5535673 6.51786491,22.3928528 6.60715073,22.3214242 C6.67857939,22.2321384 6.83929387,22.2499955 6.96429402,22.3749957 C7.071437,22.4821387 7.10715133,22.6428531 7.03572267,22.7142818 Z M8.05358103,23.1607109 C8.0178667,23.2678539 7.85715222,23.3214254 7.71429491,23.2678539 C7.55358043,23.2321396 7.44643745,23.1071394 7.48215178,22.9999964 C7.5178661,22.8928534 7.67858058,22.8392819 7.8214379,22.8749963 C7.98215237,22.9285678 8.08929536,23.0535679 8.05358103,23.1607109 Z M9.17858237,23.2499967 C9.17858237,23.3571397 9.05358222,23.4464255 8.89286774,23.4464255 C8.7142961,23.4642827 8.58929595,23.3749969 8.58929595,23.2499967 C8.58929595,23.1428537 8.7142961,23.0535679 8.87501058,23.0535679 C9.03572506,23.0357108 9.17858237,23.1249966 9.17858237,23.2499967 Z M10.2142979,23.0714251 C10.2321551,23.1785681 10.1250121,23.2857111 9.96429759,23.3214254 C9.80358312,23.3571397 9.6607258,23.2857111 9.64286864,23.1785681 C9.62501147,23.0535679 9.73215446,22.9464249 9.89286894,22.9107106 C10.0535834,22.8928534 10.1964407,22.9642821 10.2142979,23.0714251 Z" id=""></path>
            </g>
        </g>
    </g>
</svg>

<svg id="Layer_1" data-name="Layer 1" xmlns="http://www.w3.org/2000/svg" viewBox="0 0 28 28"><defs><style>.cls-1{fill:#fff;}</style></defs><title>github</title><g id="Page-1"><g id="taiko_code-box-and-note-styling" data-name="taiko code-box-and-note-styling"><g id="GITHUB"><path id="_" data-name="" class="cls-1" d="M13.71.86a13.72,13.72,0,0,1,4.34,26.73c-.7.13-.95-.3-.95-.66s0-1.93,0-3.77a3.23,3.23,0,0,0-.93-2.54c3.05-.34,6.27-1.5,6.27-6.77a5.31,5.31,0,0,0-1.41-3.68,5,5,0,0,0-.14-3.64c-1.14-.36-3.77,1.41-3.77,1.41a12.89,12.89,0,0,0-6.86,0S7.66,6.18,6.52,6.54a5,5,0,0,0-.14,3.64A5.31,5.31,0,0,0,5,13.86c0,5.25,3.2,6.43,6.25,6.77a3,3,0,0,0-.88,1.84,2.89,2.89,0,0,1-4-1.14,2.88,2.88,0,0,0-2.11-1.41c-1.34,0-.09.84-.09.84.89.41,1.52,2,1.52,2,.8,2.45,4.63,1.63,4.63,1.63,0,1.14,0,2.21,0,2.55s-.25.79-.95.66A13.72,13.72,0,0,1,13.71.86ZM5.2,20.55a.16.16,0,0,1-.23,0c-.11-.05-.16-.14-.12-.21s.13-.07.23,0S5.23,20.48,5.2,20.55Zm.55.61c-.07.07-.2,0-.29-.05s-.11-.23,0-.29.2,0,.29.05S5.82,21.11,5.75,21.16Zm.54.8c-.07.05-.21,0-.3-.12s-.09-.27,0-.32a.22.22,0,0,1,.3.11A.25.25,0,0,1,6.29,22Zm.75.75c-.07.09-.23.07-.36-.05s-.16-.27-.07-.34.23-.07.36.05S7.11,22.64,7,22.71Zm1,.45a.26.26,0,0,1-.34.11c-.16,0-.27-.16-.23-.27a.28.28,0,0,1,.34-.12C8,22.93,8.09,23.05,8.05,23.16Zm1.13.09c0,.11-.12.2-.29.2s-.3-.07-.3-.2.13-.2.29-.2S9.18,23.12,9.18,23.25Zm1-.18c0,.11-.09.21-.25.25s-.3,0-.32-.14.09-.23.25-.27S10.2,23,10.21,23.07Z"/></g></g></g></svg>
